src/assets/outline/SecurityCard.svg

<svg width="24" height="24" viewBox="0 0 24 24"  xmlns="http://www.w3.org/2000/svg">
<path d="M10.5598 22.71C9.47977 22.71 8.38977 22.4 7.54977 21.77L3.26978 18.57C2.13978 17.73 1.25977 15.96 1.25977 14.54V7.12998C1.25977 5.59998 2.37978 3.96997 3.81978 3.42997L8.79977 1.55997C9.78977 1.18997 11.3398 1.18997 12.3298 1.55997L17.2998 3.42997C18.4698 3.86997 19.4598 5.03997 19.7798 6.33997C19.8298 6.55997 19.7798 6.79998 19.6398 6.97998C19.4998 7.15998 19.2798 7.26996 19.0498 7.26996L11.1398 7.27997C9.86977 7.35997 9.55977 7.56999 9.55977 9.41999V14.85C9.55977 16.76 9.80977 17 11.7498 17H17.6698C17.9798 17 18.2598 17.19 18.3698 17.48C18.4798 17.77 18.3998 18.1 18.1698 18.31C18.0598 18.4 17.9698 18.49 17.8598 18.57L13.5798 21.78C12.7198 22.4 11.6398 22.71 10.5598 22.71ZM10.5598 2.78998C10.1098 2.78998 9.64978 2.84998 9.31978 2.97998L4.33977 4.84998C3.49977 5.16998 2.74977 6.23997 2.74977 7.14997V14.56C2.74977 15.5 3.40977 16.82 4.15977 17.38L8.43977 20.58C9.58977 21.43 11.5198 21.43 12.6698 20.58L15.4398 18.51H11.7398C8.97978 18.51 8.04977 17.59 8.04977 14.86V9.42997C8.04977 7.29997 8.55977 5.94998 11.0898 5.78998L11.7398 5.77997H17.8898C17.5898 5.34997 17.1898 5.00998 16.7698 4.84998L11.7998 2.97998C11.4598 2.84998 11.0098 2.78998 10.5598 2.78998Z" />
<path d="M21.9998 11.97H8.7998C8.3898 11.97 8.0498 11.63 8.0498 11.22C8.0498 10.81 8.3898 10.47 8.7998 10.47H21.9998C22.4098 10.47 22.7498 10.81 22.7498 11.22C22.7498 11.63 22.4098 11.97 21.9998 11.97Z" />
<path d="M19.0598 18.5H11.7398C8.97981 18.5 8.0498 17.58 8.0498 14.85V9.41998C8.0498 7.28998 8.5598 5.93997 11.0898 5.77997L11.7398 5.76996H19.0598C21.8198 5.76996 22.7498 6.68998 22.7498 9.41998V14.97C22.7298 17.61 21.7998 18.5 19.0598 18.5ZM11.7398 7.26996L11.1298 7.27997C9.85981 7.35997 9.5498 7.56998 9.5498 9.41998V14.85C9.5498 16.76 9.79981 17 11.7398 17H19.0598C20.9698 17 21.2298 16.75 21.2498 14.97V9.42996C21.2498 7.51996 20.9998 7.27997 19.0598 7.27997H11.7398V7.26996Z" />
<path d="M12.6501 16.01H11.3101C10.9001 16.01 10.5601 15.67 10.5601 15.26C10.5601 14.85 10.9001 14.51 11.3101 14.51H12.6501C13.0601 14.51 13.4001 14.85 13.4001 15.26C13.4001 15.67 13.0701 16.01 12.6501 16.01Z" />
<path d="M18.02 16.01H14.75C14.34 16.01 14 15.67 14 15.26C14 14.85 14.34 14.51 14.75 14.51H18.02C18.43 14.51 18.77 14.85 18.77 15.26C18.77 15.67 18.44 16.01 18.02 16.01Z" />
</svg>

<?xml version="1.0" encoding="UTF-8"?>
<svg width="24" height="24" viewBox="0 0 24 24" xmlns="http://www.w3.org/2000/svg">
 <path d="m10.56 22.71c-1.08 0-2.17-0.31-3.01-0.94l-4.28-3.2c-1.13-0.84-2.01-2.61-2.01-4.03v-7.41c0-1.53 1.12-3.16 2.56-3.7l4.98-1.87c0.99-0.37 2.54-0.37 3.53 0l4.97 1.87c1.17 0.44 2.16 1.61 2.48 2.91 0.05 0.22 0 0.46001-0.14 0.64001s-0.36 0.28998-0.59 0.28998l-7.91 0.01001c-1.27 0.08-1.58 0.29002-1.58 2.14v5.43c0 1.91 0.25 2.15 2.19 2.15h5.92c0.31 0 0.59 0.19 0.7 0.48s0.03 0.62-0.2 0.83c-0.11 0.09-0.2 0.18-0.31 0.26l-4.28 3.21c-0.86 0.62-1.94 0.93-3.02 0.93zm0-19.92c-0.45 0-0.91002 0.06-1.24 0.19l-4.98 1.87c-0.84 0.32-1.59 1.39-1.59 2.3v7.41c0 0.94 0.66 2.26 1.41 2.82l4.28 3.2c1.15 0.85 3.08 0.85 4.23 0l2.77-2.07h-3.7c-2.76 0-3.69-0.92-3.69-3.65v-5.43c0-2.13 0.51-3.48 3.04-3.64l0.65-0.01001h6.15c-0.3-0.43-0.7-0.76999-1.12-0.92999l-4.97-1.87c-0.34-0.13-0.79-0.19-1.24-0.19z"/>
 <path d="m22 11.97h-13.2c-0.41 0-0.75-0.34-0.75-0.75s0.34-0.75 0.75-0.75h13.2c0.41 0 0.75 0.34 0.75 0.75s-0.34 0.75-0.75 0.75z"/>
 <path d="m19.06 18.5h-7.32c-2.76 0-3.69-0.92-3.69-3.65v-5.43c0-2.13 0.51-3.48 3.04-3.64l0.65-0.01001h7.32c2.76 0 3.69 0.92002 3.69 3.65v5.55c-0.02 2.64-0.95 3.53-3.69 3.53zm-7.32-11.23-0.61 0.01001c-1.27 0.08-1.58 0.29001-1.58 2.14v5.43c0 1.91 0.25001 2.15 2.19 2.15h7.32c1.91 0 2.17-0.25 2.19-2.03v-5.54c0-1.91-0.25-2.15-2.19-2.15h-7.32v-0.01001z"/>
 <path d="m12.65 16.01h-1.34c-0.41 0-0.75-0.34-0.75-0.75s0.34-0.75 0.75-0.75h1.34c0.41 0 0.75 0.34 0.75 0.75s-0.33 0.75-0.75 0.75z"/>
 <path d="m18.02 16.01h-3.27c-0.41 0-0.75-0.34-0.75-0.75s0.34-0.75 0.75-0.75h3.27c0.41 0 0.75 0.34 0.75 0.75s-0.33 0.75-0.75 0.75z"/>
</svg>
